.local/share/icons/Gruvbox-Plus-Dark/panel/22/jdownloader-indicator.svg

<svg width="22" height="22" version="1.1" xmlns="http://www.w3.org/2000/svg">
  <defs>
    <style id="current-color-scheme" type="text/css">.ColorScheme-Text { color:#ebdbb2; } .ColorScheme-Highlight { color:#458588; } .ColorScheme-NeutralText { color:#fe8019; } .ColorScheme-PositiveText { color:#689d6a; } .ColorScheme-NegativeText { color:#fb4934; }</style>
  </defs>
  <path class="ColorScheme-Text" d="m11 3a8 8 0 0 0-8 8 8 8 0 0 0 8 8 8 8 0 0 0 8-8 8 8 0 0 0-8-8zm-1 4h2v4h2l-3.018 4-2.982-4h2v-4z" fill="currentColor"/>
</svg>

<svg xmlns="http://www.w3.org/2000/svg" width="22" height="22" version="1.1">
 <defs>
  <style id="current-color-scheme" type="text/css">
   .ColorScheme-Text { color:#ebdbb2; } .ColorScheme-Highlight { color:#458588; }
  </style>
 </defs>
 <path style="fill:currentColor" class="ColorScheme-Text" d="M 11,2.9999999 A 8,8 0 0 0 3.0000001,11 8,8 0 0 0 11,19 8,8 0 0 0 19,11 8,8 0 0 0 11,2.9999999 Z M 10,7 l 2,0 0,4 2,0 -3.017578,4 L 8.0000001,11 10,11 10,7 Z"/>
</svg>
